static/assets/img/icons/theme/devices/radio.svg

<svg height="24" viewBox="0 0 24 24" width="24" xmlns="http://www.w3.org/2000/svg"><g fill="none" fill-rule="evenodd"><path d="m0 0h24v24h-24z" opacity="0"/><g fill="#000"><path d="m4 7h16c1.1045695 0 2 .8954305 2 2v10c0 1.1045695-.8954305 2-2 2h-16c-1.1045695 0-2-.8954305-2-2v-10c0-1.1045695.8954305-2 2-2zm12 11c2.209139 0 4-1.790861 4-4s-1.790861-4-4-4-4 1.790861-4 4 1.790861 4 4 4z" opacity=".3"/><path d="m20.6185961 7.09750181c-.1947923-.06329297-.4026993-.09750181-.6185961-.09750181h-2.7985987l-9.18863614-5.12672902c-.48229425-.26909237-.65512852-.87821158-.38603614-1.36050582.26909237-.48229425.87821158-.65512852 1.36050582-.38603614l11.12451176 6.20683594c.2935352.16377575.4724398.45350483.5068495.76393685z"/><path d="m16 16c1.1045695 0 2-.8954305 2-2s-.8954305-2-2-2-2 .8954305-2 2 .8954305 2 2 2z"/><rect height="2" opacity=".3" rx="1" width="5" x="4" y="11"/><rect height="2" opacity=".3" rx="1" width="5" x="4" y="15"/></g></g></svg>

<svg width="24px" height="24px" viewBox="0 0 24 24" version="1.1" xmlns="http://www.w3.org/2000/svg" xmlns:xlink="http://www.w3.org/1999/xlink">
    <title>Icon For Radio</title>
    <g stroke="none" stroke-width="1" fill="none" fill-rule="evenodd">
        <rect opacity="0" x="0" y="0" width="24" height="24"></rect>
        <path d="M4,7 L20,7 C21.1045695,7 22,7.8954305 22,9 L22,19 C22,20.1045695 21.1045695,21 20,21 L4,21 C2.8954305,21 2,20.1045695 2,19 L2,9 C2,7.8954305 2.8954305,7 4,7 Z M16,18 C18.209139,18 20,16.209139 20,14 C20,11.790861 18.209139,10 16,10 C13.790861,10 12,11.790861 12,14 C12,16.209139 13.790861,18 16,18 Z" fill="#000000" opacity="0.3"></path>
        <path d="M20.6185961,7.09750181 C20.4238038,7.03420884 20.2158968,7 20,7 L17.2014013,7 L8.01276516,1.87327098 C7.53047091,1.60417861 7.35763664,0.995059403 7.62672902,0.512765158 C7.89582139,0.0304709116 8.5049406,-0.142363355 8.98723484,0.126729018 L20.1117466,6.33356496 C20.4052818,6.49734071 20.5841864,6.78706979 20.6185961,7.09750181 Z" fill="#000000"></path>
        <path d="M16,16 C17.1045695,16 18,15.1045695 18,14 C18,12.8954305 17.1045695,12 16,12 C14.8954305,12 14,12.8954305 14,14 C14,15.1045695 14.8954305,16 16,16 Z" fill="#000000"></path>
        <rect fill="#000000" opacity="0.3" x="4" y="11" width="5" height="2" rx="1"></rect>
        <rect fill="#000000" opacity="0.3" x="4" y="15" width="5" height="2" rx="1"></rect>
    </g>
</svg>
